assets/img/braze_icons/graduation-hat-02.svg

<svg fill="none" height="24" viewBox="0 0 24 24" width="24" xmlns="http://www.w3.org/2000/svg"><g fill="#801ed7"><path d="m18.5716 10.7597c.0885.0904.1328.1356.1349.1377.1974.1967.3206.2173.5712.0957.5774-.28 1.1483-.5741 1.7222-.861v-.014l1.4473-.72361c.3388-.16939.5528-.51565.5528-.89443 0-.37877-.214-.72503-.5528-.89442l-9.6678-4.83409c-.0933-.04761-.2864-.14614-.5028-.18675-.1828-.03429-.3704-.03429-.5532 0-.2164.04061-.4095.13914-.5028.18675l-9.66781 4.83409c-.33879.16939-.55279.51565-.55279.89442 0 .37878.214.72504.55279.89443l9.73171 4.87981c.2623.1311.3935.1967.5311.2225.1219.0229.2469.0229.3688 0 .1376-.0258.2688-.0914.5311-.2225l2.8578-1.4289c.4594-.2297.6891-.3446.763-.5001.0644-.1354.0645-.2926.0005-.4281-.0735-.1558-.3029-.2712-.7617-.502l-3.0223-1.52055c-.494-.24699-.6942-.84767-.4473-1.34164.247-.49398.8477-.69421 1.3417-.44722l4.5892 2.29431c.114.0556.3505.171.5352.3596z"/><path d="m16.4346 14.6508c.2598-.1299.5654.059.5654.3494 0 .5523.4477 1 1 1s1-.4477 1-1v-1.1377c0-.1794 0-.2692.0273-.3484.0242-.0701.0636-.1339.1155-.1868.0586-.0599.1389-.1.2994-.1803l.4001-.2c.3833-.1917.575-.2876.7308-.2645.1361.0201.2578.0953.3367.208.0902.1291.0902.3434.0903.772l.0001 2.7227c.0011.2856.0025.6445-.1163.9778-.1026.2878-.2698.5484-.4887.7616-.2535.2468-.5803.3951-.8405.5131l-6.5227 2.9894c-.1898.0877-.4287.198-.6899.2434-.2264.0393-.4579.0393-.6843 0-.2612-.0454-.5001-.1557-.6899-.2434l-6.52273-2.9894c-.26013-.118-.58696-.2663-.84047-.5131-.21895-.2132-.38614-.4738-.48872-.7616-.11877-.3333-.11736-.6922-.11624-.9779l.00009-2.7227c.00001-.4286.00002-.6429.09029-.7719.07883-.1127.20059-.188.33665-.2081.15581-.023.34748.0728.73083.2645l7.0374 3.5187.0256.013c.0933.0476.2864.1461.5028.1867.1828.0343.3704.0343.5532 0 .2164-.0406.4095-.1391.5028-.1867l.0256-.013z"/></g></svg>

<svg width="24" height="24" viewBox="0 0 24 24" fill="none" xmlns="http://www.w3.org/2000/svg">
<path d="M18.5716 10.7597C18.6601 10.8501 18.7044 10.8953 18.7065 10.8974C18.9039 11.0941 19.0271 11.1147 19.2777 10.9931C19.8551 10.7131 20.426 10.419 20.9999 10.1321V10.1181L22.4472 9.39449C22.786 9.2251 23 8.87884 23 8.50006C23 8.12129 22.786 7.77503 22.4472 7.60564L12.7794 2.77155C12.6861 2.72394 12.493 2.62541 12.2766 2.5848C12.0938 2.55051 11.9062 2.55051 11.7234 2.5848C11.507 2.62541 11.3139 2.72394 11.2206 2.77155L1.55279 7.60564C1.214 7.77503 1 8.12129 1 8.50006C1 8.87884 1.214 9.2251 1.55279 9.39449L11.2845 14.2743C11.5468 14.4054 11.678 14.471 11.8156 14.4968C11.9375 14.5197 12.0625 14.5197 12.1844 14.4968C12.322 14.471 12.4532 14.4054 12.7155 14.2743L15.5733 12.8454C16.0327 12.6157 16.2624 12.5008 16.3363 12.3453C16.4007 12.2099 16.4008 12.0527 16.3368 11.9172C16.2633 11.7614 16.0339 11.646 15.5751 11.4152L12.5528 9.89465C12.0588 9.64766 11.8586 9.04698 12.1055 8.55301C12.3525 8.05903 12.9532 7.8588 13.4472 8.10579L18.0364 10.4001C18.1504 10.4557 18.3869 10.5711 18.5716 10.7597Z" fill="#801ED7"/>
<path d="M16.4346 14.6508C16.6944 14.5209 17 14.7098 17 15.0002C17 15.5525 17.4477 16.0002 18 16.0002C18.5523 16.0002 19 15.5525 19 15.0002V13.8625C19 13.6831 19 13.5933 19.0273 13.5141C19.0515 13.444 19.0909 13.3802 19.1428 13.3273C19.2014 13.2674 19.2817 13.2273 19.4422 13.147L19.8423 12.947C20.2256 12.7553 20.4173 12.6594 20.5731 12.6825C20.7092 12.7026 20.8309 12.7778 20.9098 12.8905C21 13.0196 21 13.2339 21.0001 13.6625L21.0002 16.3852C21.0013 16.6708 21.0027 17.0297 20.8839 17.363C20.7813 17.6508 20.6141 17.9114 20.3952 18.1246C20.1417 18.3714 19.8149 18.5197 19.5547 18.6377L13.032 21.6271C12.8422 21.7148 12.6033 21.8251 12.3421 21.8705C12.1157 21.9098 11.8842 21.9098 11.6578 21.8705C11.3966 21.8251 11.1577 21.7148 10.9679 21.6271L4.44517 18.6377C4.18504 18.5197 3.85821 18.3714 3.6047 18.1246C3.38575 17.9114 3.21856 17.6508 3.11598 17.363C2.99721 17.0297 2.99862 16.6708 2.99974 16.3851L2.99983 13.6624C2.99984 13.2338 2.99985 13.0195 3.09012 12.8905C3.16895 12.7778 3.29071 12.7025 3.42677 12.6824C3.58258 12.6594 3.77425 12.7552 4.1576 12.9469L11.195 16.4656L11.2206 16.4786C11.3139 16.5262 11.507 16.6247 11.7234 16.6653C11.9062 16.6996 12.0938 16.6996 12.2766 16.6653C12.493 16.6247 12.6861 16.5262 12.7794 16.4786L12.805 16.4656L16.4346 14.6508Z" fill="#801ED7"/>
</svg>
